svgs/regular/signal.svg

<svg xmlns="http://www.w3.org/2000/svg" viewBox="0 0 640 512"><!--! Font Awesome Pro 6.6.0 by @fontawesome - https://fontawesome.com License - https://fontawesome.com/license (Commercial License) Copyright 2024 Fonticons, Inc. --><path d="M576 0c13.3 0 24 10.7 24 24l0 464c0 13.3-10.7 24-24 24s-24-10.7-24-24l0-464c0-13.3 10.7-24 24-24zM448 96c13.3 0 24 10.7 24 24l0 368c0 13.3-10.7 24-24 24s-24-10.7-24-24l0-368c0-13.3 10.7-24 24-24zM320 192c13.3 0 24 10.7 24 24l0 272c0 13.3-10.7 24-24 24s-24-10.7-24-24l0-272c0-13.3 10.7-24 24-24zM192 288c13.3 0 24 10.7 24 24l0 176c0 13.3-10.7 24-24 24s-24-10.7-24-24l0-176c0-13.3 10.7-24 24-24zM64 384c13.3 0 24 10.7 24 24l0 80c0 13.3-10.7 24-24 24s-24-10.7-24-24l0-80c0-13.3 10.7-24 24-24z"/></svg>

<svg xmlns="http://www.w3.org/2000/svg" viewBox="0 0 640 512"><!--! Font Awesome Pro 6.5.2 by @fontawesome - https://fontawesome.com License - https://fontawesome.com/license (Commercial License) Copyright 2024 Fonticons, Inc. --><path d="M576 0c13.3 0 24 10.7 24 24V488c0 13.3-10.7 24-24 24s-24-10.7-24-24V24c0-13.3 10.7-24 24-24zM448 96c13.3 0 24 10.7 24 24V488c0 13.3-10.7 24-24 24s-24-10.7-24-24V120c0-13.3 10.7-24 24-24zM320 192c13.3 0 24 10.7 24 24V488c0 13.3-10.7 24-24 24s-24-10.7-24-24V216c0-13.3 10.7-24 24-24zM192 288c13.3 0 24 10.7 24 24V488c0 13.3-10.7 24-24 24s-24-10.7-24-24V312c0-13.3 10.7-24 24-24zM64 384c13.3 0 24 10.7 24 24v80c0 13.3-10.7 24-24 24s-24-10.7-24-24V408c0-13.3 10.7-24 24-24z"/></svg>
